X:37
T: the Orphan
R:jig
S: Naka Ishii <n_ishii@YAHOO.COM>, from Kevin Burke
D: Kevin Burke on "Up Close"; Eileen Ivers on "Cherish the Ladies".
N: Related to "Star of the County Down"
N: There's a setting in Bulmer & Sharpley's "Music from Ireland" Volume 4, no. 56.
N: "Miss Casey", in O'Neill's "Music of Ireland", no. 1094, is very similar, perhaps an ancestor
M:6/8
L:1/8
K:EMin
GF | E3 EDB, | GFG A3 | B3 ABA | GEF EDB, | A,3 EDB, | GFG A3 | B3 ABA |1 GED EGF :|2 GED E3 |
| e3 dBA | GAB dBd | efe dBA | GEF EDB, | A,G,A, EDB, | GFG AGA | B3 ABA | GED E3 :|
